!!!OTL: 609. Preislied auf den Bauernstand.
!!!ARE: Europa, Mitteleuropa, Deutschland
!!!SCT: B0609
!!!TXL: @@DE
!!!YEM: Copyright 1995, estate of Helmut Schaffrath.
**kern	**text
*ICvox	*
*Ivox	*
*clefG2	*
*M4/4	*
*met(c)	*
*k[f#c#]	*
*D:	*
!LO:TX:a:t=Mit Nachdruck	!
{4a	1._Ein
=1	=1
4dd	Bau-
4dd	-er
4dd	iſt
4dd	ein
=2	=2
4dd	Eh-
8cc#L	-ren-
8bJ	.
4a}	-mann,
{4f#	denn
=3	=3
4b	er
4g	baut
4e	mir
4a	das
=4	=4
2f#	Feld;
4r}	.
{4a	wer
=5	=5
4a	ei-
4f#	-nes
4dd	Bau-
4dd	-ern
=6	=6
4.dd	ſpot-
8ee	-ten
4cc#}	kann,
{4a	iſt
=7	=7
4b	mir
8cc#L	ein
8ddJ	.
4ee	ſchlech-
4ee	-ter
=8	=8
2a	Held.
4r}	.
{4a	2._Er
=9	=9
4a	pflügt
4f#	und
4dd	briſcht,
8cc#L	und
8ddJ	.
=10	=10
4ee	Bau-
4g	-ern-
4g}	-ſchweiß
{4g	er-
=11	=11
4.f#	-hält
8a	den
4dd	gan-
4dd	-ʒen
=12	=12
2cc#	Staat:
4r}	.
{4a	was
=13	=13
4b	hilft
4b	Ge-
4ee	-lehr-
4ee	-ſam-
=14	=14
4a	-keit
8bL	und
8cc#J	.
4dd}	Fleiß,
{4f#	wenn
=15	=15
4g	man
8f#L	nicht
8gJ	.
4a	Bau-
4a	-ern
=16	=16
2d	hat?
4r}	.
==	==
!!!AGN: Staende -, Bauern - Lied
!!!GTL: Seemanns-, Bergmanns-, Bauern- und Handwerkerlieder
!!!ONB: ESAC (Essen Associative Code) Database: BOEHME
!!!AMT: simple quadruple
!!!AIN: vox
!!!EED: Helmut Schaffrath
!!!EEV: 1.0
!!Mildh. Ldb. 1799, Nr. 371.
!!@@COMMENT:"Gedicht von Gottlob Wilh. Burmann, 1785. - Die 5. Str. iſt auf die ʒweite Hälfte der Melodie ʒu ſingen."
!!@@END:
!!!Text: G. W. Burmann
!!!URL-scan: https://archive.org/details/BoehmeVtLieder1895/page/n483/mode/2up
!!!ENC: Anna Maria Matuszewska
!!!EEV: 2024/15/07
*-	*-
